resources/SLDS/icons/utility/color_swatch.svg

<svg xmlns="http://www.w3.org/2000/svg" width="52" height="52" viewBox="0 0 52 52">
  <path fill="#fff" d="M35.4350288,9.49390335 L42.5060967,16.5649712 L42.5077201,16.5633477 C44.0698172,18.1254449 44.0698172,20.6581048 42.5077201,22.220202 L42.5060957,22.2218254 L24,40.7034386 L24,15.2639687 L29.7768418,9.49256991 L29.7781746,9.49390397 C31.340487,7.93306359 33.8721188,7.93366021 35.4336954,9.49523678 L35.4350288,9.49390335 Z M50,36 L50,46 C50,48.209139 48.209139,50 46,50 L21,50 L39,32 L46,32 C48.209139,32 50,33.790861 50,36 Z M2.00011396,41.0457762 L2.00011879,41.0462543 C2.00003963,41.0310054 2,41.0155876 2,41 L2,6 C2,3.790861 3.790861,2 6,2 L16,2 C18.209139,2 20,3.790861 20,6 L20,41 C20,41.0155876 19.9999604,41.0310054 19.999886,41.0457762 C19.9752374,45.9952784 15.9552951,50 11,50 C6.04470488,50 2.0247626,45.9952784 2.00011396,41.0457762 Z M11,45 C13.209139,45 15,43.209139 15,41 C15,38.790861 13.209139,37 11,37 C8.790861,37 7,38.790861 7,41 C7,43.209139 8.790861,45 11,45 Z"/>
</svg>

<svg xmlns="http://www.w3.org/2000/svg" height="52" width="52" viewBox="0 0 52 52" fill="#fff"><path d="m35.4 9.5 7.1 7a4 4 0 0 1 0 5.7L24 40.7V15.3l5.8-5.8a4 4 0 0 1 5.6 0zM50 36v10a4 4 0 0 1-4 4H21l18-18h7a4 4 0 0 1 4 4zM2 41V6a4 4 0 0 1 4-4h10a4 4 0 0 1 4 4v35a9 9 0 0 1-18 0zm9 4a4 4 0 1 0 0-8 4 4 0 0 0 0 8z"/></svg>
